src/assets/img/brands/larq.svg

<svg viewBox="0 0 222 52" fill="none" xmlns="http://www.w3.org/2000/svg">
<path fill-rule="evenodd" clip-rule="evenodd" d="M193.541 43.3088C183.715 43.3088 175.414 34.9343 175.414 25.0219C175.414 15.109 183.715 6.73451 193.541 6.73451C203.367 6.73451 211.668 15.109 211.668 25.0219H211.667C211.667 28.7822 210.47 32.3195 208.451 35.2639L202.929 29.7423L198.338 34.3335L203.911 39.9068C200.95 42.0382 197.363 43.3088 193.541 43.3088ZM219.245 46.0578L213.727 40.5401C217.167 36.3139 219.204 30.9422 219.204 25.0219C219.204 11.0759 207.931 0.152832 193.541 0.152832C179.15 0.152832 167.877 11.0759 167.877 25.0219C167.877 38.9674 179.15 49.891 193.541 49.891C199.395 49.891 204.732 48.0831 209.005 45L214.654 50.649L219.245 46.0578Z" fill="currentColor"/>
<path fill-rule="evenodd" clip-rule="evenodd" d="M1.12109 48.8581V1.18164H8.18227V42.2758H36.9789V48.8581H1.12109Z" fill="currentColor"/>
<path fill-rule="evenodd" clip-rule="evenodd" d="M121.159 26.569H136.033C143.791 26.569 146.543 21.505 146.543 17.167C146.543 12.8296 143.791 7.76556 136.033 7.76556H121.159V26.569ZM144.462 48.8581L134.07 33.1529H121.159V48.8581H114.098V1.18164H136.747C146.83 1.18164 153.605 7.60498 153.605 17.167C153.605 23.6016 149.323 29.0861 142.697 31.1372L141.294 31.5723L153.411 48.8581H144.462Z" fill="currentColor"/>
<path fill-rule="evenodd" clip-rule="evenodd" d="M60.4042 48.8581L75.2352 12.4287L89.9342 48.8581H97.8089L79.0881 4.66057C78.1947 2.55165 76.1268 1.18164 73.8365 1.18164H58.7686V2.41465C58.7686 5.10695 60.9511 7.28943 63.644 7.28943H70.7574L52.5918 48.8581H60.4042Z" fill="currentColor"/>
</svg>

<svg viewBox="0 0 222 52" fill="none" xmlns="http://www.w3.org/2000/svg"><path fill-rule="evenodd" clip-rule="evenodd" d="M193.541 43.309c-9.826 0-18.127-8.375-18.127-18.287 0-9.913 8.301-18.287 18.127-18.287 9.826 0 18.127 8.374 18.127 18.287h-.001c0 3.76-1.197 7.297-3.216 10.242l-5.522-5.522-4.591 4.591 5.573 5.574c-2.961 2.131-6.548 3.402-10.37 3.402zm25.704 2.749l-5.518-5.518c3.44-4.226 5.477-9.598 5.477-15.518 0-13.946-11.273-24.87-25.663-24.87-14.391 0-25.664 10.924-25.664 24.87 0 13.945 11.273 24.869 25.664 24.869 5.854 0 11.191-1.808 15.464-4.891l5.649 5.649 4.591-4.591zM1.121 48.858V1.182h7.061v41.094H36.98v6.582H1.12zM121.159 26.569h14.874c7.758 0 10.51-5.064 10.51-9.402 0-4.337-2.752-9.401-10.51-9.401h-14.874v18.803zm23.303 22.29L134.07 33.152h-12.911v15.705h-7.061V1.182h22.649c10.083 0 16.858 6.423 16.858 15.985 0 6.435-4.282 11.92-10.908 13.97l-1.403.435 12.117 17.286h-8.949zM60.404 48.858l14.831-36.43 14.7 36.43h7.874L79.089 4.661a5.703 5.703 0 00-5.252-3.48H58.769v1.234a4.875 4.875 0 004.875 4.874h7.113L52.592 48.86h7.812z" fill="currentColor"/></svg>
